epam-assets/icon-sources/18/internal-logo/unified_profile.svg

<svg width="18" height="18" viewBox="0 0 18 18" fill="none" xmlns="http://www.w3.org/2000/svg">
<g id="18/internal-logo/unified_profile">
<path id="icon" fill-rule="evenodd" clip-rule="evenodd" d="M5.6625 2.25L6.75361 2.25003L7.8 2.25L3.6375 15.75H2.563H1.5L5.6625 2.25ZM11.1838 14.5147V10.7635H13.4256C15.2633 10.7635 16.5882 9.46993 16.5882 7.54401C16.5882 5.61808 15.2633 4.36766 13.4256 4.36766H9.75V14.5147H11.1838ZM13.2117 9.55147H11.1838V5.58088H13.2258C14.417 5.58088 15.1544 6.3081 15.1544 7.54436C15.1544 8.78062 14.417 9.55147 13.2117 9.55147Z" fill="#6C6F80"/>
</g>
</svg>

<svg xmlns="http://www.w3.org/2000/svg" width="18" height="18" fill="none" viewBox="0 0 18 18">
  <path fill="#6C6F80" fill-rule="evenodd" d="M5.662 2.25H7.8l-4.162 13.5H1.5l4.162-13.5Zm5.522 12.265v-3.752h2.242c1.837 0 3.162-1.293 3.162-3.219s-1.325-3.176-3.162-3.176H9.75v10.147h1.434Zm2.028-4.964h-2.028v-3.97h2.042c1.191 0 1.928.727 1.928 1.963 0 1.237-.737 2.007-1.942 2.007Z" clip-rule="evenodd"/>
</svg>
